X:1
T:Title
L:1/8
Q:1/4=100
M:4/4
K:F
V:1 treble nm="Grand Piano"
V:1
 F3 _A G2 F2 | E2 F2 G4 | G3 B _A2 G2 | F2 G2 _A2 =A2 | B3 A B2 ^c2 | c2 B2 _AG F2 | G3 B _A2 G2 | %7
w: ????~???? * * *|||||||
 F2 EF G4 | C2 C^C =C2 _AG | GFFE F4 |] %10
w: |||

